icons/source/generic/classification.svg

<?xml version="1.0" encoding="utf-8"?>
<!-- Generated by IcoMoon.io -->
<!DOCTYPE svg PUBLIC "-//W3C//DTD SVG 1.1//EN" "http://www.w3.org/Graphics/SVG/1.1/DTD/svg11.dtd">
<svg version="1.1" xmlns="http://www.w3.org/2000/svg" xmlns:xlink="http://www.w3.org/1999/xlink" width="35" height="32" viewBox="0 0 35 32">
<path d="M32.395 16.647l1.995-5.852h-3.541l1.875-5.5h-3.232l1.759-5.162h-27.284l1.759 5.162h-3.225l1.875 5.5h-3.541l1.995 5.852h-2.83l5.275 15.485h24.672l5.278-15.485h-2.831zM6.248 1.762h22.729l-1.204 3.532h-20.319zM4.778 6.924h25.668l-1.319 3.87h-23.030zM3.113 12.424h28.999l-1.439 4.222h-7.93l-1.062 2.728-8.011 0.064-1.19-2.792h-7.928z"></path>
</svg>

<svg xmlns="http://www.w3.org/2000/svg" width="35" height="32" viewBox="0 0 35 32"><path d="M32.395 16.647l1.995-5.852h-3.541l1.875-5.5h-3.232L31.251.133H3.967l1.759 5.162H2.501l1.875 5.5H.835l1.995 5.852H0l5.275 15.485h24.672l5.278-15.485h-2.831zM6.248 1.762h22.729l-1.204 3.532H7.454zm-1.47 5.162h25.668l-1.319 3.87H6.097zm-1.665 5.5h28.999l-1.439 4.222h-7.93l-1.062 2.728-8.011.064-1.19-2.792H4.552z"/></svg>
